X:1
T:Guernsey, 77.77 D
T:William Oscar Perkins (1831-1902)
T:Guernsey, 77.77 D
T:Public Domain
C:William Oscar Perkins (1831-1902)
Z:Public Domain
%%score ( 1 2 ) ( 3 4 )
L:1/8
M:4/4
K:Ab
V:1 treble 
V:2 treble 
V:3 bass 
V:4 bass 
V:1
 [Ec]>[DB] | [CA]2 [EA]2 (BA)([EG][DF]) | [CE]6 [DG]>[CA] | [EB]2 [EB]2 [EB]2 (AB) | %4
 [Ec]6 [Ec]>[DB] | [CA]2 [EA]2 (BA)([EG][DF]) | [CE]6 [EA]>[FB] | [Ec]2 [CA]2 [DB]3 [Ec] | %8
 [CA]6 [Ec]>[Ed] | [Ae]2 [Ae]2 [Ae]2 (cd) | [Ae]6 [Ac]>[GB] | [FA]2 [FA]2 [=DA]2 (Bc) | %12
 [EB]6 [Ec]>[DB] | [CA]2 [CA]2 (AB)(AG) | [DF]6 [FA]>[FB] | [Ec]2 [EA]2 [EB]3 [Ec] | [EA]6 |] %17
V:2
 x2 | x4 F2 x2 | x8 | x6 E2 | x8 | x4 F2 x2 | x8 | x8 | x8 | x6 A2 | x8 | x6 =D2 | x8 | x4 E2 E2 | %14
 x8 | x8 | x6 |] %17
V:3
 [A,,A,]>[A,,A,] | [A,,A,]2 [A,,C]2 [B,,D]2 [D,A,]2 | [A,,A,]6 [B,,E,]>[A,,A,] | %3
 [E,G,]2 [E,G,]2 [E,G,]2 ([C,A,][E,G,]) | A,6 [A,,A,]>[A,,A,] | [A,,A,]2 [A,,C]2 [D,D]2 [D,A,]2 | %6
 [A,,A,]6 [C,A,]>[D,A,] | [E,A,]2 [E,A,]2 [E,G,]3 [E,G,] | [A,,A,]6 A,>[A,B,] | %9
 [A,C]2 [A,C]2 [A,C]2 (A,B,) | [A,C]6 [E,E]>[E,D] | [F,C]2 [F,C]2 [B,,B,]2 [B,,A,]2 | %12
 [E,G,]6 [E,G,]>[E,G,] | [A,,A,]2 [A,,A,]2 [C,A,]2 [C,A,]2 | [D,A,]6 [D,A,]>[D,A,] | %15
 [E,A,]2 [E,C]2 [E,D]3 [E,E] | [A,,C]6 |] %17
V:4
 x2 | x8 | x8 | x8 | A,6 x2 | x8 | x8 | x8 | x6 A,3/2 x/ | x6 A,2 | x8 | x8 | x8 | x8 | x8 | x8 | %16
 x6 |] %17

